categories/32/preferences-system-network.svg

<?xml version="1.0" encoding="UTF-8" standalone="no"?>
<svg
   xmlns:osb="http://www.openswatchbook.org/uri/2009/osb"
   xmlns:dc="http://purl.org/dc/elements/1.1/"
   xmlns:cc="http://creativecommons.org/ns#"
   xmlns:rdf="http://www.w3.org/1999/02/22-rdf-syntax-ns#"
   xmlns:svg="http://www.w3.org/2000/svg"
   xmlns="http://www.w3.org/2000/svg"
   xmlns:xlink="http://www.w3.org/1999/xlink"
   id="svg4212"
   height="32"
   width="32"
   version="1.1">
  <defs
     id="defs4214">
    <linearGradient
       id="linearGradient4330">
      <stop
         offset="0"
         style="stop-color:#f0c1ff;stop-opacity:1"
         id="stop4332" />
      <stop
         offset="0.26238"
         style="stop-color:#c5a3f2;stop-opacity:1"
         id="stop4334" />
      <stop
         offset="0.704952"
         style="stop-color:#7a36b1;stop-opacity:1"
         id="stop4336" />
      <stop
         offset="1"
         style="stop-color:#4c2d81;stop-opacity:1"
         id="stop4338" />
    </linearGradient>
    <linearGradient
       gradientTransform="matrix(0.64663181,0,0,-0.64663181,-0.477516,30.872739)"
       gradientUnits="userSpaceOnUse"
       xlink:href="#linearGradient3678"
       id="linearGradient3293"
       y2="23.172663"
       x2="49.089928"
       y1="23"
       x1="37.5" />
    <linearGradient
       id="linearGradient3678">
      <stop
         offset="0"
         style="stop-color:#ffffff;stop-opacity:0.13368984"
         id="stop3680" />
      <stop
         offset="1"
         style="stop-color:#ffffff;stop-opacity:0"
         id="stop3682" />
    </linearGradient>
    <linearGradient
       gradientTransform="matrix(0.64663181,0,0,-0.64663181,-0.477516,30.872739)"
       gradientUnits="userSpaceOnUse"
       xlink:href="#linearGradient3672"
       id="linearGradient3297"
       y2="23"
       x2="47.500416"
       y1="23"
       x1="4.4897356" />
    <linearGradient
       id="linearGradient3672">
      <stop
         offset="0"
         style="stop-color:#ffffff;stop-opacity:0.49197862"
         id="stop3674" />
      <stop
         offset="1"
         style="stop-color:#ffffff;stop-opacity:1"
         id="stop3676" />
    </linearGradient>
    <linearGradient
       gradientTransform="matrix(0.45723773,-0.45723773,-0.45723773,-0.45723773,14.748777,38.235329)"
       gradientUnits="userSpaceOnUse"
       xlink:href="#linearGradient3678"
       id="linearGradient3300"
       y2="24.108988"
       x2="2.8318863"
       y1="23.707106"
       x1="14.893399" />
    <linearGradient
       gradientTransform="matrix(0.45723773,-0.45723773,-0.45723773,-0.45723773,14.748777,38.235329)"
       gradientUnits="userSpaceOnUse"
       xlink:href="#linearGradient3672"
       id="linearGradient3304"
       y2="24.414213"
       x2="2.8725832"
       y1="25.828426"
       x1="48.127419" />
    <linearGradient
       gradientTransform="matrix(0.45723773,0.45723773,-0.45723773,0.45723773,14.868501,-6.1758265)"
       gradientUnits="userSpaceOnUse"
       xlink:href="#linearGradient3672"
       id="linearGradient3308"
       y2="27.242641"
       x2="4.2867966"
       y1="23.707108"
       x1="46.006096" />
    <linearGradient
       gradientTransform="matrix(0.45723773,0.45723773,-0.45723773,0.45723773,14.868501,-6.1758265)"
       gradientUnits="userSpaceOnUse"
       xlink:href="#linearGradient3678"
       id="linearGradient3311"
       y2="21.829967"
       x2="4.0629644"
       y1="22.292894"
       x1="14.893399" />
    <linearGradient
       gradientTransform="matrix(0,0.64663181,0.64663181,0,1.139061,-0.4889068)"
       gradientUnits="userSpaceOnUse"
       xlink:href="#linearGradient3672"
       id="linearGradient3315"
       y2="23"
       x2="47.5"
       y1="23"
       x1="3.5" />
    <linearGradient
       gradientTransform="matrix(0,0.64663181,0.64663181,0,1.139061,-0.4889068)"
       gradientUnits="userSpaceOnUse"
       xlink:href="#linearGradient3678"
       id="linearGradient3318"
       y2="21.91367"
       x2="48.262592"
       y1="22"
       x1="35.5" />
    <linearGradient
       id="linearGradient3820-7-2-2">
      <stop
         offset="0"
         style="stop-color:#3d3d3d;stop-opacity:1"
         id="stop3822-2-6-36" />
      <stop
         offset="0.5"
         style="stop-color:#686868;stop-opacity:0.49803922"
         id="stop3864-8-7-6" />
      <stop
         offset="1"
         style="stop-color:#686868;stop-opacity:0"
         id="stop3824-1-2-4" />
    </linearGradient>
    <linearGradient
       osb:paint="solid"
       id="linearGradient4526">
      <stop
         id="stop4528"
         offset="0"
         style="stop-color:#ffffff;stop-opacity:1;" />
    </linearGradient>
    <linearGradient
       id="linearGradient4011-4">
      <stop
         offset="0"
         style="stop-color:#ffffff;stop-opacity:1"
         id="stop4013-8" />
      <stop
         offset="0.507761"
         style="stop-color:#ffffff;stop-opacity:0.23529412"
         id="stop4015-5" />
      <stop
         offset="0.83456558"
         style="stop-color:#ffffff;stop-opacity:0.15686275"
         id="stop4017-6" />
      <stop
         offset="1"
         style="stop-color:#ffffff;stop-opacity:0.39215687"
         id="stop4019-1" />
    </linearGradient>
    <linearGradient
       xlink:href="#linearGradient4011-4"
       id="linearGradient3089"
       gradientUnits="userSpaceOnUse"
       gradientTransform="matrix(0.72972969,0,0,0.72972969,-36.346075,-2.503353)"
       x1="71.204407"
       y1="6.2375584"
       x2="71.204407"
       y2="44.340794" />
    <radialGradient
       xlink:href="#linearGradient4330"
       id="radialGradient3092"
       gradientUnits="userSpaceOnUse"
       gradientTransform="matrix(0,4.1707419,-4.4121474,-1.1352118e-7,53.281701,-15.863595)"
       cx="1.7447759"
       cy="8.4497671"
       fx="1.7447759"
       fy="8.4497671"
       r="19.99999" />
    <radialGradient
       r="62.769119"
       fy="186.17059"
       fx="99.157013"
       cy="186.17059"
       cx="99.157013"
       gradientTransform="matrix(0.17524541,0,0,0.05575992,-1.37681,18.119146)"
       gradientUnits="userSpaceOnUse"
       id="radialGradient3315"
       xlink:href="#linearGradient3820-7-2-2" />
  </defs>
  <metadata
     id="metadata4217">
    <rdf:RDF>
      <cc:Work
         rdf:about="">
        <dc:format>image/svg+xml</dc:format>
        <dc:type
           rdf:resource="http://purl.org/dc/dcmitype/StillImage" />
        <dc:title />
      </cc:Work>
    </rdf:RDF>
  </metadata>
  <path
     d="m 27.000001,28.5 a 11,3.4999999 0 1 1 -22,0 11,3.4999999 0 1 1 22,0 z"
     id="path3818-0-2-8"
     style="fill:url(#radialGradient3315);fill-opacity:1;stroke:none" />
  <path
     style="color:#000000;display:inline;overflow:visible;visibility:visible;fill:url(#radialGradient3092);fill-opacity:1;fill-rule:nonzero;stroke:none;stroke-width:1;marker:none;enable-background:accumulate"
     id="path2555"
     d="M 16.000002,1.500577 C 7.999402,1.500577 1.5,7.999976 1.5,16.000576 c 0,8.000602 6.499402,14.500004 14.500002,14.500002 8.000597,0 14.500005,-6.4994 14.499998,-14.500002 0,-8.0006 -6.499401,-14.499999 -14.499998,-14.499999 z" />
  <path
     style="color:#000000;display:inline;overflow:visible;visibility:visible;opacity:0.5;fill:none;stroke:url(#linearGradient3089);stroke-width:1;stroke-linecap:round;stroke-linejoin:round;stroke-miterlimit:4;stroke-dasharray:none;stroke-dashoffset:0;stroke-opacity:1;marker:none;enable-background:accumulate"
     id="path8655"
     d="m 29.5,16.000099 c 0,7.456085 -6.044601,13.500478 -13.499829,13.500478 C 8.54426,29.500577 2.5,23.456115 2.5,16.000099 2.5,8.544359 8.54426,2.500578 16.000171,2.500578 23.455399,2.500578 29.5,8.544359 29.5,16.000099 l 0,0 z" />
  <path
     d="M 15.989916,2.0977069 A 6.1430022,13.902584 0 0 0 14.758897,29.610655"
     id="path3805"
     style="fill:none;stroke:url(#linearGradient3318);stroke-width:1;stroke-linecap:round;stroke-linejoin:round;stroke-miterlimit:4;stroke-dasharray:none;stroke-dashoffset:0;stroke-opacity:1" />
  <path
     d="M 18.613716,28.593907 A 6.1430022,13.902584 0 0 0 15.996841,2.0976603"
     id="path3609"
     style="opacity:0.8;fill:none;stroke:url(#linearGradient3315);stroke-width:1;stroke-linecap:round;stroke-linejoin:round;stroke-miterlimit:4;stroke-dasharray:none;stroke-dashoffset:0;stroke-opacity:1" />
  <path
     d="m 17.466686,28.185141 a 1.293126,1.293126 0 0 0 2.586252,0 1.293126,1.293126 0 1 0 -2.586252,0 z"
     id="path3775"
     style="color:#000000;display:inline;overflow:visible;visibility:visible;opacity:0.8;fill:#ffffff;fill-opacity:1;fill-rule:nonzero;stroke:#ffffff;stroke-width:1.00042665;stroke-linecap:round;stroke-linejoin:round;stroke-miterlimit:4;stroke-dasharray:none;stroke-dashoffset:0;stroke-opacity:0.52127662;marker:none;enable-background:accumulate" />
  <path
     d="M 7.910688,5.3237707 A 13.902584,6.1430022 45 0 1 25.569843,26.069175"
     id="path3801"
     style="fill:none;stroke:url(#linearGradient3311);stroke-width:1;stroke-linecap:round;stroke-linejoin:round;stroke-miterlimit:4;stroke-dasharray:none;stroke-dashoffset:0;stroke-opacity:1" />
  <path
     d="M 25.842208,25.830816 A 13.902584,6.1430022 45 0 1 5.277884,8.370498"
     id="path3611"
     style="opacity:0.8;fill:none;stroke:url(#linearGradient3308);stroke-width:1;stroke-linecap:round;stroke-linejoin:round;stroke-miterlimit:4;stroke-dasharray:none;stroke-dashoffset:0;stroke-opacity:1" />
  <path
     d="m 6.635296,8.826702 a 1.2931258,1.2931258 0 0 1 -2.586251,0 1.2931258,1.2931258 0 1 1 2.586251,0 z"
     id="path3781"
     style="color:#000000;display:inline;overflow:visible;visibility:visible;opacity:0.8;fill:#ffffff;fill-opacity:1;fill-rule:nonzero;stroke:#ffffff;stroke-width:1.00042665;stroke-linecap:round;stroke-linejoin:round;stroke-miterlimit:4;stroke-dasharray:none;stroke-dashoffset:0;stroke-opacity:0.52127662;marker:none;enable-background:accumulate" />
  <path
     d="M 25.966659,6.5086843 A 6.1430022,13.902584 45 0 0 5.412624,21.350645"
     id="path3613"
     style="opacity:0.8;fill:none;stroke:url(#linearGradient3304);stroke-width:1;stroke-linecap:round;stroke-linejoin:round;stroke-miterlimit:4;stroke-dasharray:none;stroke-dashoffset:0;stroke-opacity:1" />
  <path
     d="m 5.222447,23.515686 a 1.2931257,1.2931257 0 0 0 0,-2.586251 1.2931257,1.2931257 0 1 0 0,2.586251 z"
     id="path3615"
     style="opacity:0.8;fill:#ffffff;fill-opacity:1;stroke:#ffffff;stroke-width:1.00042665;stroke-linecap:round;stroke-linejoin:round;stroke-miterlimit:4;stroke-dasharray:none;stroke-dashoffset:0;stroke-opacity:0.52127662" />
  <path
     d="M 6.086253,25.914582 A 6.1430022,13.902584 45 0 0 26.146794,6.7764717"
     id="path3787"
     style="fill:none;stroke:url(#linearGradient3300);stroke-width:1;stroke-linecap:round;stroke-linejoin:round;stroke-miterlimit:4;stroke-dasharray:none;stroke-dashoffset:0;stroke-opacity:1" />
  <path
     d="M 27.852838,12.781384 A 13.902584,6.1430022 0 0 0 2.124218,16.287455"
     id="path2835"
     style="fill:none;stroke:url(#linearGradient3297);stroke-width:1;stroke-linecap:round;stroke-linejoin:round;stroke-miterlimit:4;stroke-dasharray:none;stroke-dashoffset:0;stroke-opacity:1" />
  <path
     d="m 29.388659,13.029738 a 1.2931257,1.2931257 0 0 0 -2.586248,0 1.2931257,1.2931257 0 1 0 2.586248,0 z"
     id="path3722"
     style="color:#000000;display:inline;overflow:visible;visibility:visible;opacity:0.8;fill:#ffffff;fill-opacity:1;fill-rule:nonzero;stroke:#ffffff;stroke-width:1.00042665;stroke-linecap:round;stroke-linejoin:round;stroke-miterlimit:4;stroke-dasharray:none;stroke-dashoffset:0;stroke-opacity:0.52127662;marker:none;enable-background:accumulate" />
  <path
     d="M 2.192681,16.673153 A 13.902584,6.1430022 0 0 0 29.890988,16.354875"
     id="path3797"
     style="fill:none;stroke:url(#linearGradient3293);stroke-width:1;stroke-linecap:round;stroke-linejoin:round;stroke-miterlimit:4;stroke-dasharray:none;stroke-dashoffset:0;stroke-opacity:1" />
  <path
     style="color:#000000;clip-rule:nonzero;display:inline;overflow:visible;visibility:visible;opacity:0.5;isolation:auto;mix-blend-mode:normal;color-interpolation:sRGB;color-interpolation-filters:linearRGB;solid-color:#000000;solid-opacity:1;fill:none;fill-opacity:1;fill-rule:nonzero;stroke:#6326b9;stroke-width:1;stroke-linecap:butt;stroke-linejoin:miter;stroke-miterlimit:4;stroke-dasharray:none;stroke-dashoffset:0;stroke-opacity:1;marker:none;color-rendering:auto;image-rendering:auto;shape-rendering:auto;text-rendering:auto;enable-background:accumulate"
     id="path2555-6"
     d="m 16.000002,1.500577 c -8.0006,0 -14.500002,6.499399 -14.500002,14.5 0,8.0006 6.499402,14.500003 14.500002,14.500001 8.000596,0 14.500006,-6.499401 14.499998,-14.500001 0,-8.000601 -6.499402,-14.5 -14.499998,-14.5 z" />
</svg>

<svg xmlns="http://www.w3.org/2000/svg" xmlns:xlink="http://www.w3.org/1999/xlink" viewBox="0 0 32 32"><defs><linearGradient id="d"><stop offset="0" stop-color="#f0c1ff"/><stop offset=".262" stop-color="#c5a3f2"/><stop offset=".705" stop-color="#7a36b1"/><stop offset="1" stop-color="#4c2d81"/></linearGradient><linearGradient gradientTransform="matrix(.64663 0 0 -.64663 -.478 30.873)" gradientUnits="userSpaceOnUse" xlink:href="#a" id="p" y2="23.173" x2="49.09" y1="23" x1="37.5"/><linearGradient id="a"><stop offset="0" stop-color="#fff" stop-opacity=".134"/><stop offset="1" stop-color="#fff" stop-opacity="0"/></linearGradient><linearGradient gradientTransform="matrix(.64663 0 0 -.64663 -.478 30.873)" gradientUnits="userSpaceOnUse" xlink:href="#b" id="o" y2="23" x2="47.5" y1="23" x1="4.49"/><linearGradient id="b"><stop offset="0" stop-color="#fff" stop-opacity=".492"/><stop offset="1" stop-color="#fff"/></linearGradient><linearGradient gradientTransform="rotate(-45 53.528 1.315) scale(.64663)" gradientUnits="userSpaceOnUse" xlink:href="#a" id="n" y2="24.109" x2="2.832" y1="23.707" x1="14.893"/><linearGradient gradientTransform="rotate(-45 53.528 1.315) scale(.64663)" gradientUnits="userSpaceOnUse" xlink:href="#b" id="m" y2="24.414" x2="2.873" y1="25.828" x1="48.127"/><linearGradient gradientTransform="rotate(45 14.89 14.86) scale(.64663)" gradientUnits="userSpaceOnUse" xlink:href="#b" id="l" y2="27.243" x2="4.287" y1="23.707" x1="46.006"/><linearGradient gradientTransform="rotate(45 14.89 14.86) scale(.64663)" gradientUnits="userSpaceOnUse" xlink:href="#a" id="k" y2="21.83" x2="4.063" y1="22.293" x1="14.893"/><linearGradient gradientTransform="matrix(0 .64663 .64663 0 1.14 -.49)" gradientUnits="userSpaceOnUse" xlink:href="#b" id="j" y2="23" x2="47.5" y1="23" x1="3.5"/><linearGradient gradientTransform="matrix(0 .64663 .64663 0 1.14 -.49)" gradientUnits="userSpaceOnUse" xlink:href="#a" id="i" y2="21.914" x2="48.263" y1="22" x1="35.5"/><linearGradient id="e"><stop offset="0" stop-color="#3d3d3d"/><stop offset=".5" stop-color="#686868" stop-opacity=".498"/><stop offset="1" stop-color="#686868" stop-opacity="0"/></linearGradient><linearGradient id="c"><stop offset="0" stop-color="#fff"/><stop offset=".508" stop-color="#fff" stop-opacity=".235"/><stop offset=".835" stop-color="#fff" stop-opacity=".157"/><stop offset="1" stop-color="#fff" stop-opacity=".392"/></linearGradient><linearGradient xlink:href="#c" id="h" gradientUnits="userSpaceOnUse" gradientTransform="translate(-36.346 -2.503) scale(.72973)" x1="71.204" y1="6.238" x2="71.204" y2="44.341"/><radialGradient xlink:href="#d" id="g" gradientUnits="userSpaceOnUse" gradientTransform="matrix(0 4.17074 -4.41215 0 53.282 -15.864)" cx="1.745" cy="8.45" fx="1.745" fy="8.45" r="20"/><radialGradient r="62.769" fy="186.171" fx="99.157" cy="186.171" cx="99.157" gradientTransform="matrix(.17525 0 0 .05576 -1.377 18.12)" gradientUnits="userSpaceOnUse" id="f" xlink:href="#e"/></defs><path d="M27 28.5a11 3.5 0 1 1-22 0 11 3.5 0 1 1 22 0z" fill="url(#f)"/><path d="M16 1.5C8 1.5 1.5 8 1.5 16S8 30.5 16 30.5 30.5 24 30.5 16 24 1.5 16 1.5z" color="#000" overflow="visible" fill="url(#g)"/><path d="M29.5 16c0 7.456-6.045 13.5-13.5 13.5-7.456 0-13.5-6.044-13.5-13.5S8.544 2.5 16 2.5c7.455 0 13.5 6.044 13.5 13.5z" color="#000" overflow="visible" opacity=".5" fill="none" stroke="url(#h)" stroke-linecap="round" stroke-linejoin="round"/><path d="M15.99 2.098a6.143 13.903 0 0 0-1.23 27.513" fill="none" stroke="url(#i)" stroke-linecap="round" stroke-linejoin="round"/><path d="M18.614 28.594a6.143 13.903 0 0 0-2.617-26.496" opacity=".8" fill="none" stroke="url(#j)" stroke-linecap="round" stroke-linejoin="round"/><path d="M17.467 28.185a1.293 1.293 0 0 0 2.586 0 1.293 1.293 0 1 0-2.586 0z" color="#000" overflow="visible" opacity=".8" fill="#fff" stroke="#fff" stroke-linecap="round" stroke-linejoin="round" stroke-opacity=".521"/><path d="M7.91 5.324A13.903 6.143 45 0 1 25.57 26.07" fill="none" stroke="url(#k)" stroke-linecap="round" stroke-linejoin="round"/><path d="M25.842 25.83A13.903 6.143 45 0 1 5.278 8.37" opacity=".8" fill="none" stroke="url(#l)" stroke-linecap="round" stroke-linejoin="round"/><path d="M6.635 8.827a1.293 1.293 0 0 1-2.586 0 1.293 1.293 0 1 1 2.584 0z" color="#000" overflow="visible" opacity=".8" fill="#fff" stroke="#fff" stroke-linecap="round" stroke-linejoin="round" stroke-opacity=".521"/><path d="M25.967 6.51A6.143 13.903 45 0 0 5.413 21.35" opacity=".8" fill="none" stroke="url(#m)" stroke-linecap="round" stroke-linejoin="round"/><path d="M5.222 23.516a1.293 1.293 0 0 0 0-2.587 1.293 1.293 0 1 0 0 2.585z" opacity=".8" fill="#fff" stroke="#fff" stroke-linecap="round" stroke-linejoin="round" stroke-opacity=".521"/><path d="M6.086 25.915a6.143 13.903 45 0 0 20.06-19.14" fill="none" stroke="url(#n)" stroke-linecap="round" stroke-linejoin="round"/><path d="M27.853 12.78a13.903 6.143 0 0 0-25.73 3.507" fill="none" stroke="url(#o)" stroke-linecap="round" stroke-linejoin="round"/><path d="M29.39 13.03a1.293 1.293 0 0 0-2.588 0 1.293 1.293 0 1 0 2.587 0z" color="#000" overflow="visible" opacity=".8" fill="#fff" stroke="#fff" stroke-linecap="round" stroke-linejoin="round" stroke-opacity=".521"/><path d="M2.193 16.673a13.903 6.143 0 0 0 27.698-.318" fill="none" stroke="url(#p)" stroke-linecap="round" stroke-linejoin="round"/><path style="isolation:auto;mix-blend-mode:normal" d="M16 1.5C8 1.5 1.5 8 1.5 16S8 30.5 16 30.5 30.5 24 30.5 16 24 1.5 16 1.5z" color="#000" overflow="visible" opacity=".5" fill="none" stroke="#6326b9"/></svg>
